X: 255
T: Miss Hay Mackenzie's Favorite
C:
R: reel
B: William Shepherd "2nd Collection" 1800 p.25 #5
F: http://imslp.org/wiki/File:PMLP73094-Shepherd_Collections_HMT.pdf
C: William Shepherd (17??-1812)
Z: 2012 John Chambers <jc:trillian.mit.edu>
M: 2/4
L: 1/16
K: Bb
F2 |\
B2B2 TB2d2 | f2fe (ed).c.B | e2ge d2fd | (cd).e.c (BA).G.F |\
B2B2 TB2d2 | f2fe (ed).c.B | (ga)bf (ed)cB | F2A2 TB2 :|
|: FE |\
(DF).B.F (DF).B.F | (EG).c.c Tc3d | (ed).c.B (AB).c.A | (Bd).f.d (bf).d.B |\
(DF).B.F (DF).B.F | (EG).c.c Tc3d | (ed).c.B FBAc | B2B2 TB2 :|
